docs/src/images/colors/hero.svg

<svg height="311" viewBox="0 0 681 311" width="681" xmlns="http://www.w3.org/2000/svg"><g fill="none" fill-rule="evenodd"><path d="m0 0h681v311h-681z" fill="#333"/><path d="m170 0h85v77h-85z" fill="#ccc"/><path d="m340 0h85v77h-85z" fill="#fafafa"/><path d="m510 0h85v77h-85zm-425 0h85v77h-85z" fill="#999"/><path d="m255 0h85v77h-85z" fill="#e5e5e5"/><path d="m595 0h86v77h-86z" fill="#ccc"/><path d="m0 77h85v77h-85z" fill="#e5e5e5"/><path d="m340 77h85v77h-85z" fill="#ccc"/><path d="m170 77h85v77h-85z" fill="#fafafa"/><path d="m255 77h85v77h-85z" fill="#999"/><path d="m425 77h85v77h-85zm170 0h86v77h-86z" fill="#e5e5e5"/><path d="m0 154h85v77h-85z" fill="#999"/><path d="m340 154h85v77h-85zm170 0h85v77h-85zm-425 0h85v77h-85zm170 0h85v77h-85z" fill="#e5e5e5"/><path d="m425 154h85v77h-85z" fill="#fafafa"/><path d="m595 154h86v77h-86zm-425 77h85v80h-85zm340 0h85v80h-85z" fill="#999"/><path d="m85 231h85v80h-85z" fill="#e5e5e5"/><path d="m255 231h85v80h-85z" fill="#fafafa"/><path d="m425 231h85v80h-85zm170 0h86v80h-86z" fill="#e5e5e5"/></g></svg>

<svg xmlns="http://www.w3.org/2000/svg" width="681" height="311" viewBox="0 0 681 311">
    <g fill="none" fill-rule="evenodd">
        <path fill="#333" d="M0 0H681V311H0z"/>
        <path fill="#CCC" d="M170 0H255V77H170z"/>
        <path fill="#FAFAFA" d="M340 0H425V77H340z"/>
        <path fill="#999" d="M510 0H595V77H510zM85 0H170V77H85z"/>
        <path fill="#E5E5E5" d="M255 0H340V77H255z"/>
        <path fill="#CCC" d="M595 0H681V77H595z"/>
        <path fill="#E5E5E5" d="M0 77H85V154H0z"/>
        <path fill="#CCC" d="M340 77H425V154H340z"/>
        <path fill="#FAFAFA" d="M170 77H255V154H170z"/>
        <path fill="#999" d="M255 77H340V154H255z"/>
        <path fill="#E5E5E5" d="M425 77H510V154H425zM595 77H681V154H595z"/>
        <path fill="#999" d="M0 154H85V231H0z"/>
        <path fill="#E5E5E5" d="M340 154H425V231H340zM510 154H595V231H510zM85 154H170V231H85zM255 154H340V231H255z"/>
        <path fill="#FAFAFA" d="M425 154H510V231H425z"/>
        <path fill="#999" d="M595 154H681V231H595zM170 231H255V311H170zM510 231H595V311H510z"/>
        <path fill="#E5E5E5" d="M85 231H170V311H85z"/>
        <path fill="#FAFAFA" d="M255 231H340V311H255z"/>
        <path fill="#E5E5E5" d="M425 231H510V311H425zM595 231H681V311H595z"/>
    </g>
</svg>
